WorldWind/resources/milstd2525/tacgrp/g-gpgpwa------x.svg

<?xml version="1.0" encoding="UTF-8" standalone="no"?>
<!-- SVG content generated using Symbology Configuration Management System (SCMS) -->

<!-- Systematic Software Engineering Ltd. - www.systematic.co.uk - do not remove  -->

<svg
    xmlns:dc="http://purl.org/dc/elements/1.1/"
    xmlns:cc="http://creativecommons.org/ns#"
    xmlns:rdf="http://www.w3.org/1999/02/22-rdf-syntax-ns#"
    xmlns:svg="http://www.w3.org/2000/svg"
    xmlns="http://www.w3.org/2000/svg"
    xmlns:sodipodi="http://sodipodi.sourceforge.net/DTD/sodipodi-0.dtd"
    xmlns:inkscape="http://www.inkscape.org/namespaces/inkscape"
    id="G*GPGPWA--****X"
    width="353.5"
    height="355.25"
    viewBox="0 0 353.5 355.25"
    version="1.1"
    inkscape:version="0.48.2 r9819"
    sodipodi:docname="g-gpgpwa------x.svg">
    <metadata
        id="metadata14">
        <rdf:RDF>
            <cc:Work
                rdf:about="">
                <dc:format>image/svg+xml</dc:format>
                <dc:type
                    rdf:resource="http://purl.org/dc/dcmitype/StillImage"/>
            </cc:Work>
        </rdf:RDF>
    </metadata>
    <defs
        id="defs12"/>
    <sodipodi:namedview
        pagecolor="#ffffff"
        bordercolor="#666666"
        borderopacity="1"
        objecttolerance="10"
        gridtolerance="10"
        guidetolerance="10"
        inkscape:pageopacity="0"
        inkscape:pageshadow="2"
        inkscape:window-width="640"
        inkscape:window-height="480"
        id="namedview10"
        showgrid="false"
        inkscape:zoom="0.59"
        inkscape:cx="175"
        inkscape:cy="180.25"
        inkscape:window-x="0"
        inkscape:window-y="0"
        inkscape:window-maximized="0"
        inkscape:current-layer="g6"/>
    <g
        id="g3"
        transform="translate(-25,-25)">
        <svg
            viewBox="0 0 400 400"
            id="_0.G-GPGPWA------X"
            width="400"
            height="400"
            version="1.1"
            inkscape:version="0.48.2 r9819">
            <g
                transform="matrix(7,0,0,7,25,25)"
                id="g6">
                <path
                    d="M 25.25,50.75 C 18.174,50.75 12.197,48.293 7.316,43.385 2.439,38.473 0,32.469 0,25.375 0,18.24 2.43,12.227 7.287,7.336 12.146,2.445 18.133,0 25.25,0 c 7.076,0 13.053,2.457 17.932,7.367 4.879,4.91 7.318,10.914 7.318,18.008 0,7.135 -2.43,13.148 -7.287,18.039 -4.859,4.891 -10.846,7.336 -17.963,7.336 z m 0,-49.5 c -6.738,0 -12.443,2.338 -17.117,7.01 -4.67,4.672 -7.008,10.377 -7.008,17.115 0,6.738 2.338,12.443 7.008,17.117 4.674,4.67 10.379,7.008 17.117,7.008 6.738,0 12.443,-2.338 17.115,-7.008 4.672,-4.674 7.01,-10.379 7.01,-17.117 0,-6.738 -2.338,-12.443 -7.01,-17.115 C 37.693,3.588 31.988,1.25 25.25,1.25 z m 0.279,43.5 C 20.041,44.75 15.414,42.869 11.648,39.111 7.883,35.35 6,30.73 6,25.25 6,19.77 7.883,15.15 11.648,11.391 15.413,7.632 20.041,5.75 25.529,5.75 c 5.449,0 10.057,1.891 13.822,5.67 3.766,3.781 5.649,8.391 5.649,13.83 0,5.48 -1.873,10.1 -5.619,13.861 -3.746,3.758 -8.363,5.639 -13.852,5.639 z M 43.75,25.342 C 43.75,20.27 41.988,15.965 38.467,12.43 34.946,8.895 30.645,7.125 25.563,7.125 c -5.121,0 -9.434,1.758 -12.936,5.273 -3.5,3.516 -5.252,7.83 -5.252,12.943 0,5.074 1.762,9.369 5.281,12.885 3.524,3.516 7.824,5.274 12.907,5.274 5.083,0 9.383,-1.758 12.904,-5.273 3.521,-3.515 5.283,-7.811 5.283,-12.885 z m -18.283,6.783 c -1.963,0 -3.635,-0.68 -5.02,-2.033 -1.381,-1.357 -2.072,-3.014 -2.072,-4.967 0,-1.994 0.682,-3.66 2.043,-4.996 1.365,-1.336 3.047,-2.004 5.049,-2.004 1.963,0 3.625,0.68 4.988,2.035 1.363,1.355 2.045,3.012 2.045,4.965 0,1.953 -0.682,3.609 -2.045,4.967 -1.363,1.353 -3.025,2.033 -4.988,2.033 z"
                    id="path8"
                    style="fill:#ffffff"
                    inkscape:connector-curvature="0"/>
            </g>
        </svg>
    </g>
</svg>

<?xml version="1.0" encoding="UTF-8" standalone="no"?>
<!-- SVG content generated using Symbology Configuration Management System (SCMS) -->

<!-- Systematic Software Engineering Ltd. - www.systematic.co.uk - do not remove  -->

<svg
   xmlns:dc="http://purl.org/dc/elements/1.1/"
   xmlns:cc="http://creativecommons.org/ns#"
   xmlns:rdf="http://www.w3.org/1999/02/22-rdf-syntax-ns#"
   xmlns:svg="http://www.w3.org/2000/svg"
   xmlns="http://www.w3.org/2000/svg"
   xmlns:sodipodi="http://sodipodi.sourceforge.net/DTD/sodipodi-0.dtd"
   xmlns:inkscape="http://www.inkscape.org/namespaces/inkscape"
   id="G*GPGPWA--****X"
   width="400px"
   height="400px"
   viewBox="0 0 400 400"
   version="1.1"
   inkscape:version="0.48.2 r9819"
   sodipodi:docname="g-gpgpwa------x.svg">
  <metadata
     id="metadata14">
    <rdf:RDF>
      <cc:Work
         rdf:about="">
        <dc:format>image/svg+xml</dc:format>
        <dc:type
           rdf:resource="http://purl.org/dc/dcmitype/StillImage" />
      </cc:Work>
    </rdf:RDF>
  </metadata>
  <defs
     id="defs12" />
  <sodipodi:namedview
     pagecolor="#ffffff"
     bordercolor="#666666"
     borderopacity="1"
     objecttolerance="10"
     gridtolerance="10"
     guidetolerance="10"
     inkscape:pageopacity="0"
     inkscape:pageshadow="2"
     inkscape:window-width="640"
     inkscape:window-height="480"
     id="namedview10"
     showgrid="false"
     inkscape:zoom="0.59"
     inkscape:cx="200"
     inkscape:cy="200"
     inkscape:window-x="0"
     inkscape:window-y="0"
     inkscape:window-maximized="0"
     inkscape:current-layer="g6" />
  <g
     id="g3">
    <svg
       viewBox="0 0 400 400"
       id="_0.G-GPGPWA------X"
       width="400px"
       height="400px"
       version="1.1">
      <g
         transform="translate(25 25) scale(7 7)"
         id="g6">
        <path
           d="M25.25 50.75 C18.174 50.75 12.197 48.293 7.316 43.385 C2.439 38.473 0 32.469 0 25.375      C0 18.24 2.43 12.227 7.287 7.336 C12.146 2.445 18.133 0 25.25 0 C32.326      0 38.303 2.457 43.182 7.367 C48.061 12.277 50.5 18.281 50.5 25.375 C50.5 32.51      48.07 38.523 43.213 43.414 C38.354 48.305 32.367 50.75 25.25 50.75 zM25.25      1.25 C18.512 1.25 12.807 3.588 8.133 8.26 C3.463 12.932 1.125 18.637 1.125      25.375 C1.125 32.113 3.463 37.818 8.133 42.492 C12.807 47.162 18.512 49.5      25.25 49.5 C31.988 49.5 37.693 47.162 42.365 42.492 C47.037 37.818 49.375 32.113      49.375 25.375 C49.375 18.637 47.037 12.932 42.365 8.26 C37.693 3.588 31.988      1.25 25.25 1.25 zM25.529 44.75 C20.041 44.75 15.414 42.869 11.648 39.111      C7.883 35.35 6 30.73 6 25.25 C6 19.77 7.883 15.15 11.648 11.391 C15.413 7.632      20.041 5.75 25.529 5.75 C30.978 5.75 35.586 7.641 39.351 11.42 C43.117 15.201      45 19.811 45 25.25 C45 30.73 43.127 35.35 39.381 39.111 C35.635 42.869      31.018 44.75 25.529 44.75 zM43.75 25.342 C43.75 20.27 41.988 15.965 38.467      12.43 C34.946 8.895 30.645 7.125 25.563 7.125 C20.442 7.125 16.129 8.883 12.627      12.398 C9.127 15.914 7.375 20.228 7.375 25.341 C7.375 30.415 9.137 34.71      12.656 38.226 C16.18 41.742 20.48 43.5 25.563 43.5 C30.646 43.5 34.946 41.742      38.467 38.227 C41.988 34.712 43.75 30.416 43.75 25.342 zM25.467 32.125 C23.504      32.125 21.832 31.445 20.447 30.092 C19.066 28.735 18.375 27.078 18.375      25.125 C18.375 23.131 19.057 21.465 20.418 20.129 C21.783 18.793 23.465 18.125      25.467 18.125 C27.43 18.125 29.092 18.805 30.455 20.16 C31.818 21.515 32.5      23.172 32.5 25.125 C32.5 27.078 31.818 28.734 30.455 30.092 C29.092 31.445      27.43 32.125 25.467 32.125 z"
           id="path8"
           style="fill:#ffffff" />
      </g>
    </svg>
  </g>
</svg>
